icons/lines/folder-favorite.svg

<svg xmlns="http://www.w3.org/2000/svg" width="24" height="24" viewBox="0 0 24 24" fill="none" stroke="currentColor" stroke-width="2" stroke-linecap="round" stroke-linejoin="round">
  <path d="M11.78 17.04a.32.32 0 0 0 .43 0l2.58-2.26a1 1 0 0 0-2.09-2.58l-.7.54-.71-.53a1 1 0 0 0-2.09 2.57z" />
  <path d="M22 17c0 4-1 5-5 5H7c-4 0-5-1-5-5V7c0-4 1-5 5-5h1.5c1.5 0 1.83.44 2.4 1.2l1.5 2c.38.5.6.8 1.6.8h3c4 0 5 1 5 5z" />
</svg>

<svg xmlns="http://www.w3.org/2000/svg" width="24" height="24" viewBox="0 0 24 24" fill="none" stroke="currentColor" stroke-width="2" stroke-linecap="round" stroke-linejoin="round" >
  <path d="M9.19997 14.78L11.78 17.04C11.9 17.15 12.09 17.15 12.21 17.04L14.79 14.78C15.46 14.19 15.55 13.19 14.99 12.49C14.43 11.79 13.41 11.66 12.7 12.2L12 12.74L11.29 12.21C10.57 11.67 9.55997 11.8 8.99997 12.5C8.43997 13.19 8.52997 14.2 9.19997 14.78Z"/>
  <path d="M22 11V17C22 21 21 22 17 22H7C3 22 2 21 2 17V7C2 3 3 2 7 2H8.5C10 2 10.33 2.44 10.9 3.2L12.4 5.2C12.78 5.7 13 6 14 6H17C21 6 22 7 22 11Z" stroke-miterlimit="10"/>
  </svg>
